X:580
T: Abends und morgens (278), S. 468
N: T0468
O: Luxemburg
S: Singendes Volk, Esch-Alzette, 1937 posth.]
N: Junglinster, hhh Prosper Brentener, 1890
R: ???]
M: 2/4
L: 1/8
K: G
D | G2GA | B2BB | AcBA | G2z2
dddd | eeee
cccA | dddd
G3B | A3c | BGAF | G2z

